src/pos-icons/human.svg

<svg height="24" viewBox="0 0 24 24" width="24" xmlns="http://www.w3.org/2000/svg"><path d="m21 9h-6v13h-2v-6h-2v6h-2v-13h-6v-2h18m-9-5a2 2 0 0 1 2 2 2 2 0 0 1 -2 2c-1.11 0-2-.9-2-2 0-1.11.89-2 2-2z"/></svg>

<?xml version="1.0" encoding="UTF-8"?><!DOCTYPE svg PUBLIC "-//W3C//DTD SVG 1.1//EN" "http://www.w3.org/Graphics/SVG/1.1/DTD/svg11.dtd"><svg xmlns="http://www.w3.org/2000/svg" xmlns:xlink="http://www.w3.org/1999/xlink" version="1.1" id="mdi-human" width="24" height="24" viewBox="0 0 24 24"><path d="M21,9H15V22H13V16H11V22H9V9H3V7H21M12,2A2,2 0 0,1 14,4A2,2 0 0,1 12,6C10.89,6 10,5.1 10,4C10,2.89 10.89,2 12,2Z" /></svg>
